X: 4
T:Grab Your Hats
M:2/4
L:1/8
R:Polka
N:http://www.lesession.co.uk
Z:Steve Mansfield 1998-2001
K:G
bb ba/g/ | a/b/a/g/ e2 | aa a g/f/
|1 gdBA G4 :|2 g2 b2 g4 |: B2 d2 d2 d2 |
dedc B2 GA | B2 d2 dBGA | B2 A2 G4 :|
<end>
<start>
